suite-common/icons/assets/icons/stop.svg

<svg xmlns="http://www.w3.org/2000/svg" viewBox="0 0 32 32">
  <path fill-rule="evenodd" d="M5.495 4.085a2.05 2.05 0 0 0-1.326 1.132l-.142.303v20.962l.174.355c.217.439.638.84 1.066 1.013l.306.123h20.854l.306-.123c.428-.173.849-.574 1.066-1.013l.174-.355V5.52l-.142-.303a2.05 2.05 0 0 0-1.357-1.136c-.461-.12-20.532-.116-20.979.004"/>
</svg>

<svg xmlns="http://www.w3.org/2000/svg" viewBox="0 0 32 32"><path d="M5.495 4.085 C 4.912 4.242,4.435 4.650,4.169 5.217 L 4.027 5.520 4.027 16.001 L 4.027 26.482 4.201 26.837 C 4.418 27.276,4.839 27.677,5.267 27.850 L 5.573 27.973 16.000 27.973 L 26.427 27.973 26.733 27.850 C 27.161 27.677,27.582 27.276,27.799 26.837 L 27.973 26.482 27.973 16.001 L 27.973 5.520 27.831 5.217 C 27.562 4.643,27.078 4.238,26.474 4.081 C 26.013 3.961,5.942 3.965,5.495 4.085 " stroke="none" fill-rule="evenodd" fill="black"></path></svg>
